!!!!SEGMENT: pl-kk--kk-i-636--001-006_anonim--in-corona-domini-responsorium-3tium.krn
!!!cenid: 18xx:4528
!!!COM: Anonim
!!!COM-rismID: pe30004985
!!!CDT:
!!!CNT:
!!!OPR: In Corona Domini
!!!OTL: Responsorium 3tium
!!!OMV: 006
!!!PDT:
!!!AGN: Sacred
!!!YEC: Copyright 2022 Narodowy Instytut Fryderyka Chopina (https://polishscores.org)
!!!YEM: License CC-BY-4.0 (https://creativecommons.org/licenses/by/4.0)
!!!SMS-siglum: PL-Kk
!!!SMS-shelfmark: Kk.I.636
!!!SMS-variant:
!!!SMS-altvar:
!!!SMS-shelfwork: 001-006 M
!!!NIFC-rismSourceID: 1001216440
!!!NIFC-rismChildID: 1001216906
!!!NIFC-islandoraID: pl-kk:40786
!!!URL-pdf-islandora: https://repozytorium.nifc.pl/islandora/object/pl-kk%3A40786/datastream/PDF/view
!!!URL-scan: https://polish.musicsources.pl/pl/lokalizacje/galeria/rekopisy/7271/1 @EN{Scan on Polish Music Sources Website} @PL{Skany w portalu Dziedzictwo Muzyki Polskiej w otwartym dostępie}
!!!IIIF:
!!!ONB-nifc: UWAGA: Lamentacje i Responsoria In Corona Domini na skanach: S – 1-7, A – 24-30, T – 45-52, B – 70-78. Każda Lamentacja i Responsorium to oddzielne pliki.
!!!AIN: 1 alto 1 bass 1 soprn 1 tenor
!!!key:
**kern	**text	**kern	**text	**kern	**text	**kern	**text
*part4	*part4	*part3	*part3	*part2	*part2	*part1	*part1
*staff4	*staff4	*staff3	*staff3	*staff2	*staff2	*staff1	*staff1
*I"Basso.	*	*I"Tenore.	*	*I"Alto.	*	*I"Soprano.	*
*I'B	*	*I'T	*	*I'A	*	*I'S.	*
*Ibass	*	*Itenor	*	*Ialto	*	*Isoprn	*
*ICvox	*	*ICvox	*	*ICvox	*	*ICvox	*
*clefF4	*	*clefC4	*	*clefC3	*	*clefC1	*
*k[b-e-]	*	*k[b-e-]	*	*k[b-e-]	*	*k[b-e-]	*
*g:	*	*g:	*	*g:	*	*g:	*
*M4/4	*	*M4/4	*	*M4/4	*	*M4/4	*
*met(c)	*	*met(c)	*	*met(c)	*	*met(c)	*
=1	=1	=1	=1	=1	=1	=1	=1
*2\right	*	*2\right	*	*2\right	*	*2\right	*
2G\	Ec-	2d\	Ec-	2g\	Ec-	2b-\	Ec-
4D\	-ce	4d\	-ce	4f#X\	-ce	4a\	-ce
[4d\	vi-	[4d\	vi-	[4f#\	vi-	[4a\	vi-
!LO:LB:g=original	!	!	!	!	!	!	!
=2	=2	=2	=2	=2	=2	=2	=2
!	!	!LO:N:xstem:cue	!	!LO:N:xstem:cue	!	!LO:N:xstem:cue	!
8d\]	.	8d\]	.	8f#\]	.	8a\]	.
8c\	-di-	8d\	-di-	8f#X\	-di-	8a\	-di-
4B-\	-mus	4d\	-mus	4g\	-mus	4b-\	-mus
4A\	cum	4e-\	e-	4g\	e-	4cc\	e-
4D\	.	4d\	-um	4f#X\	-um	4a\	-um
!	!	!LO:LB:g=original	!	!LO:LB:g=original	!	!LO:LB:g=original	!
=3	=3	=3	=3	=3	=3	=3	=3
4G\	non	4d\	non	4g\	non	4b-\	non
4G\	ha-	4d\	ha-	4g\	ha-	4b-\	ha-
4F\	-ben-	4d\	-be-	4g\	-ben-	4bn\	-ben-
4F\	-tem	4d\	-bant	4g\	-tem	4b\	-tem
=4	=4	=4	=4	=4	=4	=4	=4
4.E-\	spe-	4.c\	spe-	4.g\	spe-	4cc\	spe-
.	.	.	.	.	.	4g\	-ci-
8E-\	-ci-	8c\	-ci-	8g\	-ci-	.	.
4D\	-em	4c\	-em	4fn\	-em	4a-X\	-em
4GG/	ne-	4Bn\	ne-	4d\	ne-	4g\	ne-
!LO:LB:g=original	!	!	!	!	!	!	!
=5	=5	=5	=5	=5	=5	=5	=5
4C/	-que	4c\	-que	4e-\	-que	4g\	-que
4BBn/	de-	4d\	de-	4d\	de-	4g\	de-
2C/	-co-	2c\	-co-	2e-\	-co-	2g\	-co-
=6	=6	=6	=6	=6	=6	=6	=6
4GG/	-rem,	4Bn\	-rem,	4d\	-rem,	4g\	-rem,
4E-\	as-	4e-\	as-	4g\	as-	4b-X\	as-
4E-\	-pec-	4e-\	-pec-	4g\	-pec-	4b-\	-pec-
4E-\	-tus	4e-\	-tus	4g\	-tus	4b-\	-tus
!	!	!LO:LB:g=original	!	!LO:LB:g=original	!	!LO:LB:g=original	!
=7	=7	=7	=7	=7	=7	=7	=7
2B-\	e-	4e-\	e-	4g\	e-	2b-\	e-
.	.	8d\L	.	8f\L	.	.	.
.	.	8c\J	.	8e-\J	.	.	.
4B-\	-jus	4d\	-jus	4f\	-jus	4b-\	-jus
4G\	in	4e-\	in	4g\	in	4b-\	in
=8	=8	=8	=8	=8	=8	=8	=8
4.A-X\	e-	4c\	e-	2e-\	e-	8cc\L	e-
.	.	.	.	.	.	8dd\J	.
.	.	2c\	-o	.	.	2ee-\	-o
8G\	.	.	.	.	.	.	.
4F\	-o	.	.	4a-X\	-o	.	.
4B-\	non	4c\	non	4f\	non	4dd\	non
!LO:PB:g=original	!	!	!	!	!	!	!
=9	=9	=9	=9	=9	=9	=9	=9
4E-\	est,	4B-\	est,	4g\	est,	4ee-\	est,
2E-\	hic	2B-\	hic	2g\	hic	2b-\	hic
4F\	pec-	4d\	pec-	4f\	pec-	[4a-X\	pec-
!	!	!	!	!LO:TX:a:t=Volti Subito	!	!	!
!	!	!	!	!LO:PB:g=original	!	!	!
=10	=10	=10	=10	=10	=10	=10	=10
2G\	-ca-	2e-\	-ca-	4e-\	-ca-	4a-\]	.
.	.	.	.	4g\	-ta	8g\L	-ca-
.	.	.	.	.	.	8f\J	.
2E-\	-ta	2e-\	-ta	[2b-\	no-	4g\	.
.	.	.	.	.	.	4g\	-ta
!	!	!	!	!	!	!LO:LB:g=original	!
=11	=11	=11	=11	=11	=11	=11	=11
2A-X\	no-	2e-\	no-	4b-\]	.	2cc\	no-
.	.	.	.	8a-X\L	.	.	.
.	.	.	.	8g\J	.	.	.
4A-\	-stra	4e-\	-stra	4a-\	-stra	4cc\	-stra
4A-\	por-	4e-\	por-	4a-\	por-	4cc\	por-
!	!	!LO:LB:g=original	!	!	!	!	!
=12	=12	=12	=12	=12	=12	=12	=12
1An	-ta-	2.e-\	-ta-	1f	-ta-	1cc	-ta-
.	.	8d\L	.	.	.	.	.
.	.	8c\J	.	.	.	.	.
=13	=13	=13	=13	=13	=13	=13	=13
4B-\	-vit,	4d\	-vit	4f\	-vit,	4b-\	-vit
2B-\	et	2d\	et	2b-\	et	2f/	et
4G\	pro	4e-\	pro	4b-\	pro	4g/	pro
!LO:LB:g=original	!	!	!	!	!	!	!
=14	=14	=14	=14	=14	=14	=14	=14
4F\	no-	4c\	no-	8.an\L	no-	8an/	no-
.	.	.	.	.	.	8f/	-bis
.	.	.	.	16g\Jk	.	.	.
4D\	-bis	4d\	-bis	4f\	-bis	2b-\	do-
2C/	do-	2e-\	do-	4g\	do-	.	.
.	.	.	.	8f\L	.	4a\	.
.	.	.	.	8e-\J	.	.	.
!	!	!	!	!LO:LB:g=original	!	!LO:LB:g=original	!
=15	=15	=15	=15	=15	=15	=15	=15
4BB-/	-let,	4d\	-let,	4f\	-let,	4b-\	-let
2BB-/	ip-	2d\	ip-	2f\	i-	2b-\	i-
4BB-/	-se	4d\	-se	4f\	-pse	4b-\	-pse
=16	=16	=16	=16	=16	=16	=16	=16
2F\	au-	4d\	au-	2f\	au-	4b-\	au-
.	.	8.c\L	.	.	.	8.a\L	.
.	.	16B-\Jk	.	.	.	16g\Jk	.
2F\	-tem	2c\	-tem	2f\	-tem	2a\	-tem
!	!	!LO:LB:g=original	!	!	!	!	!
=17	=17	=17	=17	=17	=17	=17	=17
4F#X\	vul-	4e-\	vl-	4an\	vul-	4cc\	vul-
4F#\	-ne-	4e-\	-ne-	4a\	-ne-	4cc\	-ne-
4F#\	-ra-	4e-\	-ra-	4a\	-ra-	4cc\	-ra-
4F#\	-tus	4e-\	-tus	4a\	-tus	4cc\	-tus
!LO:LB:g=original	!	!	!	!	!	!	!
=18	=18	=18	=18	=18	=18	=18	=18
4G\	est	4d\	est	2d\	est	2b-\	est
2G\	pro-	4d\	pro-	.	.	.	.
.	.	4c#X\	-pter	[2en\	pro-	2a\	prop-
8Fn\	-pter	4c#\	i-	.	.	.	.
8En\	i-	.	.	.	.	.	.
!	!	!	!	!	!	!LO:LB:g=original	!
=19	=19	=19	=19	=19	=19	=19	=19
!	!	!	!	!LO:N:xsyem:cue	!	!	!
2.F\	-ni-	4d\	-ni-	4e\]	.	4a\	-ter
.	.	4d\	-qui-	8d\	-pter	4a\	i-
.	.	.	.	8c#X\	i-	.	.
.	.	2d\	-ta-	4d\	-ni-	4bn\	-ni-
8E-X\L	-qui-	.	.	4d\	-qui-	4b\	-qui-
8D\J	.	.	.	.	.	.	.
!	!	!	!	!LO:LB:g=original	!	!	!
=20	=20	=20	=20	=20	=20	=20	=20
!	!	!LO:N:xstem:cue	!	!	!	!	!
4E-\	-ta-	4d\	.	4g\	-ta-	4cc\	-ta-
4E-\	-tes	4c\	-tes	4g\	-tes	4cc\	-tes
2E-\	no-	4B-\	no-	2g\	no-	2cc#X\	no-
.	.	8A\L	.	.	.	.	.
.	.	8G\J	.	.	.	.	.
!	!	!LO:PB:g=original	!	!	!	!	!
=21	=21	=21	=21	=21	=21	=21	=21
2D\	-stras,	2A\	-stras.	2f#X\	-stras,	2dd\	-stras
2r	.	2r	.	2r	.	2dd\	cu-
!LO:LB:g=original	!	!	!	!	!	!	!
=22	=22	=22	=22	=22	=22	=22	=22
!LO:TX:a:t=2.	!	!LO:TX:a:t=2	!	!	!	!	!
0r	.	0r	.	2g\	cu-	4g\	-jus
.	.	.	.	.	.	4b-\	li-
.	.	.	.	4d\	-jus	4a\	-vo-
.	.	.	.	4f\	li-	[4dd\	-re,
!	!	!	!	!	!	!LO:LB:g=original	!
=23	=23	=23	=23	=23	=23	=23	=23
.	.	.	.	2e-\	-vo-	4dd\]	.
.	.	.	.	.	.	2cc\	.
.	.	.	.	8d\	-re	.	.
.	.	.	.	8d\	sa-	.	.
.	.	.	.	[4g\	-na-	4b-\	sa-
=24	=24	=24	=24	=24	=24	=24	=24
2r	.	2d\	cu-	4g\]	.	2a\	-na-
.	.	.	.	4f#X\	.	.	.
2G\	cu-	4G/	-jus	4g\	-ti	4b-\	-ti,
.	.	4B-\	li-	4r	.	4r	.
!	!	!	!	!LO:LB:g=original	!	!	!
=25	=25	=25	=25	=25	=25	=25	=25
!	!	!	!	!LO:TX:a:t=1	!	!LO:TX:a:t=1	!
4D\	-jus	4A\	-vo-	1r	.	1r	.
4F\	li-	2d\	.	.	.	.	.
2E-\	-vo-	.	.	.	.	.	.
.	.	4c\	.	.	.	.	.
=26	=26	=26	=26	=26	=26	=26	=26
2D\	-re	2d\	-re,	4r	.	4r	.
.	.	.	.	4f#X\	sa-	4dd\	sa-
2r	.	2r	.	[2a\	-na-	4.cc\	-na-
.	.	.	.	.	.	16b-\LL	.
.	.	.	.	.	.	16a\JJ	.
=27	=27	=27	=27	=27	=27	=27	=27
4r	.	4r	.	4a\]	.	2b-\	.
4G\	sa-	4B-\	sa-	8.g\L	.	.	.
.	.	.	.	16f#X\Jk	.	.	.
4.F\	-n-	2d\	-na-	4g\	.	2bn\	.
.	.	.	.	4d\	-ti	.	.
16E-\LL	.	.	.	.	.	.	.
16D\JJ	.	.	.	.	.	.	.
!LO:LB:g=original	!	!LO:LB:g=original	!	!	!	!LO:LB:g=original	!
=28	=28	=28	=28	=28	=28	=28	=28
2E-\	.	8d\L	.	4r	.	4cc\	.
.	.	8c\J	.	.	.	.	.
.	.	2c\	.	4g\	sa-	4g\	.
4D\	-ti	.	.	4.fn\	-na-	4a-X\	-ti
4GG/	sa-	4Bn\	.	.	.	4g\	sa-
.	.	.	.	16e-\LL	.	.	.
.	.	.	.	16d\JJ	.	.	.
=29	=29	=29	=29	=29	=29	=29	=29
2C/	-na-	4c\	-ti	8e-\L	.	2g\	-na-
.	.	.	.	8c\J	.	.	.
.	.	4e-\	sa-	2e-\	.	.	.
2BBn/	-ti	[2d\	-na-	.	.	2g\	-ti
.	.	.	.	4d\	-ti	.	.
!	!	!	!	!LO:LB:g=original	!	!	!
=30	=30	=30	=30	=30	=30	=30	=30
1C	su-	4d\]	.	1e-	su-	1g	su-
.	.	8.c\L	-ti	.	.	.	.
.	.	16Bn\Jk	.	.	.	.	.
.	.	[2c\	su-	.	.	.	.
=31	=31	=31	=31	=31	=31	=31	=31
!	!	!	!	!	!	!LO:TX:a:t=2	!
!	!	!	!	!	!	!LO:N:vis=0	!
1GG	.	4c\]	.	4e-\	.	1g	-mus
.	.	8.Bn\L	.	8.d\L	.	.	.
.	.	16A\Jk	.	16c\Jk	.	.	.
.	.	2B\	.	2d\	.	.	.
!	!	!LO:LB:g=original	!	!	!	!	!
=32	=32	=32	=32	=32	=32	=32	=32
1GG	-mus.	1Bn	-mus.	1d	-mus	1gyy	.
=33||	=33||	=33||	=33||	=33||	=33||	=33 ||	=33||
!LO:TX:a:t=3.	!	!LO:TX:a:t=1	!	!LO:TX:a:t=Solo.	!	!LO:TX:a:t=15	!
0r	.	1r	.	4f\	Ve-	00r	.
.	.	.	.	4B-/	-re	.	.
.	.	.	.	8r	.	.	.
.	.	.	.	8g\	lan-	.	.
.	.	.	.	8f\	-guo-	.	.
.	.	.	.	8e-\	-res	.	.
!	!	!	!	!LO:LB:g=original	!	!	!
=34	=34	=34	=34	=34	=34	=34	=34
!	!	!LO:TX:a:t=Solo.	!	!	!	!	!
.	.	2r	.	16d\LL	nos-	.	.
.	.	.	.	16c\JJ	.	.	.
.	.	.	.	8B-/	-tros	.	.
.	.	.	.	2g\	ip-	.	.
.	.	4c\	ve-	.	.	.	.
.	.	4F/	-re,	4f\	.	.	.
=35	=35	=35	=35	=35	=35	=35	=35
1r	.	8r	.	8f\	.	.	.
.	.	8d\	lan-	16en\LL	-se	.	.
.	.	.	.	16d\JJ	.	.	.
.	.	8c\	-guo-	4e\	tu-	.	.
.	.	8B-\	-res	.	.	.	.
.	.	16A/LL	no-	4f\	-lit	.	.
.	.	16G/JJ	.	.	.	.	.
!	!	!LO:N:vis=4	!	!	!	!	!
.	.	8F/	-stros,	.	.	.	.
.	.	[4d\	ip-	4r	.	.	.
!LO:LB:g=original	!	!LO:LB:g=original	!	!	!	!	!
=36	=36	=36	=36	=36	=36	=36	=36
!LO:TX:a:t=Solo.	!	!	!	!LO:TX:a:t=2	!	!	!
2r	.	4d\]	.	0r	.	.	.
.	.	2c\	-se	.	.	.	.
4F\	ve-	.	.	.	.	.	.
4BB-/	-re	[4B-\	tu-	.	.	.	.
=37	=37	=37	=37	=37	=37	=37	=37
8r	.	8B-\L]	.	.	.	00r	.
8G\	lan-	16A\L	.	.	.	.	.
.	.	16G\JJ	.	.	.	.	.
8F\	-guo-	4A\	.	.	.	.	.
8E-\	-res	.	.	.	.	.	.
16D/LL	no-	4B-\	-lit.	.	.	.	.
16C/JJ	.	.	.	.	.	.	.
8BB-/	-stros	.	.	.	.	.	.
[4G\	ip-	4r	.	.	.	.	.
=38	=38	=38	=38	=38	=38	=38	=38
!	!	!LO:TX:a:t=1	!	!	!	!	!
8G\]	.	1r	.	2r	.	.	.
16F#X\LL	-se	.	.	.	.	.	.
16En\JJ	.	.	.	.	.	.	.
4F#\	tu-	.	.	.	.	.	.
4G\	-lit,	.	.	4r	.	.	.
4r	.	.	.	[4g\	et	.	.
!LO:LB:g=original	!	!	!	!	!	!	!
=39	=39	=39	=39	=39	=39	=39	=39
!LO:TX:a:t=1	!	!	!	!LO:N:xstem:cue	!	!	!
1r	.	4r	.	8g\]	.	.	.
.	.	.	.	8f\	co-	.	.
.	.	4.d\	et	2f\	-li-	.	.
.	.	8c\	do-	.	.	.	.
.	.	[4c\	-lo-	4e-\	.	.	.
!	!	!LO:LB:g=original	!	!LO:LB:g=original	!	!	!
=40	=40	=40	=40	=40	=40	=40	=40
2r	.	4c\]	.	4d\	.	.	.
.	.	4B-\	-res	2g\	.	.	.
4r	.	2A\	no-	.	.	.	.
[4d\	et	.	.	4f#X\	-res	.	.
=41	=41	=41	=41	=41	=41	=41	=41
8d\]	.	4G/	-stros	2g\	no-	00r	.
8c\	do-	.	.	.	.	.	.
2c\	-lo-	4r	.	.	.	.	.
.	.	4r	.	4f#X\	-stros	.	.
4B-\	-res	4g\	et	4r	.	.	.
=42	=42	=42	=42	=42	=42	=42	=42
!	!	!	!	!LO:TX:a:t=2	!	!	!
2A-X\	no-	8g\	.	0r	.	.	.
.	.	8f\	do-	.	.	.	.
.	.	2f\	-lo-	.	.	.	.
4G\	-stros	.	.	.	.	.	.
[4c\	ip-	4e-\	-res	.	.	.	.
=43	=43	=43	=43	=43	=43	=43	=43
4c\]	.	8f\L	no-	.	.	.	.
.	.	8d\J	.	.	.	.	.
4.B-\	-se	4B-\	-stros	.	.	.	.
.	.	4r	.	.	.	.	.
16An\LL	por-	.	.	.	.	.	.
16G\JJ	.	.	.	.	.	.	.
4A\	-ta-	[4e-\	ip-	.	.	.	.
!LO:LB:g=original	!	!LO:LB:g=original	!	!	!	!	!
=44	=44	=44	=44	=44	=44	=44	=44
4B-\	-vit,	4e-\]	.	4r	.	.	.
4r	.	8d\	-se	2b-\	i-	.	.
.	.	16c\LL	por-	.	.	.	.
.	.	16B-\JJ	.	.	.	.	.
!	!	!LO:TX:t=P:problem:mixed beam	!	!	!	!	!
2r	.	8c\L	-ta-	.	.	.	.
.	.	8F/J	.	.	.	.	.
.	.	[4f\	.	8a\	-pse	.	.
.	.	.	.	16g\LL	por-	.	.
.	.	.	.	16f\JJ	.	.	.
=45	=45	=45	=45	=45	=45	=45	=45
4r	.	8f\L]	.	2g\	-ta-	0r	.
.	.	16e-\L	.	.	.	.	.
.	.	16d\JJ	.	.	.	.	.
2c\	ip-	2e-\	.	.	.	.	.
.	.	.	.	4f\	.	.	.
8B-\	-se	[4d\	.	16f\LL	.	.	.
.	.	.	.	16e-\	.	.	.
8A\	por-	.	.	16f\	.	.	.
.	.	.	.	16d\JJ	.	.	.
!	!	!	!	!LO:LB:g=original	!	!	!
=46	=46	=46	=46	=46	=46	=46	=46
4G\	-ta-	8d\L]	.	2e-\	.	.	.
.	.	16c\L	.	.	.	.	.
.	.	16B-\JJ	.	.	.	.	.
16.G\LL	.	8c\L	.	.	.	.	.
32F\K	.	.	.	.	.	.	.
16G\	.	8B-\J	.	.	.	.	.
16E-\JJ	.	.	.	.	.	.	.
4F\	.	4A\	.	8d\L	.	.	.
.	.	.	.	16c\L	.	.	.
.	.	.	.	16B-\JJ	.	.	.
4B-\	.	[4B-\	.	8.d\L	.	.	.
.	.	.	.	16e-\Jk	.	.	.
!	!	!LO:LB:g=original	!	!	!	!	!
=47	=47	=47	=47	=47	=47	=47	=47
2F\	.	8B-\]L	.	4d\	.	1r	.
.	.	16A\	.	.	.	.	.
.	.	16G\J	.	.	.	.	.
.	.	4A\	.	4c\	.	.	.
4BB-/	-vit.	4B-\	-vit.	4B-\	-vit.	.	.
4r	.	4r	.	4r	.	.	.
!LO:LB:g=original	!	!	!	!	!	!LO:LB:g=original	!
=48||	=48||	=48||	=48||	=48||	=48||	=48||	=48||
!LO:TX:a:t=1	!	!LO:TX:a:t=2	!	!LO:TX:a:t=tutti.	!	!	!
1r	.	0r	.	2g\	Cu-	2r	.
.	.	.	.	4d\	-jus	2dd\	Cu-
.	.	.	.	4f\	li-	.	.
=49	=49	=49	=49	=49	=49	=49	=49
!LO:TX:a:t=tutti.	!	!	!	!	!	!	!
2r	.	.	.	2e-\	-vo-	4g\	-jus
.	.	.	.	.	.	4cc\	li-
2G\	cu-	.	.	(4.d\	.	2b-\	-vo-
.	.	.	.	8e-\)	.	.	.
!	!	!	!	!LO:LB:g=original	!	!	!
=50	=50	=50	=50	=50	=50	=50	=50
!	!	!LO:TX:a:t=tutti.	!	!	!	!	!
4D\	-jus	2d\	cu-	2f\	.	2a\	.
4F\	li-	.	.	.	.	.	.
2E-\	-vo-	4G/	-jus	[2g\	.	4b-\	.
.	.	4c\	li-	.	.	4cc\	.
=51	=51	=51	=51	=51	=51	=51	=51
4D\	.	2B-\	-vo-	8g\L]	.	2dd\	.
.	.	.	.	8f\	.	.	.
2G\	.	.	.	8e-\	.	.	.
.	.	.	.	8d\J	.	.	.
.	.	2A\	.	4e-\	.	2cc\	.
4F#X\	.	.	.	[4d\	.	.	.
=52	=52	=52	=52	=52	=52	=52	=52
4.G\	.	8B-\L	.	8d\L]	.	4.b-\	.
.	.	8c\J	.	8c\J	.	.	.
.	.	2d\	.	4.B-/	.	.	.
8Fn\	.	.	.	.	.	8a\	.
2E-\	.	.	.	.	.	2g\	.
.	.	.	.	8G/	.	.	.
.	.	4c\	.	4c/	.	.	.
!LO:LB:g=original	!	!LO:LB:g=original	!	!	!	!LO:LB:g=original	!
=53	=53	=53	=53	=53	=53	=53	=53
2D\	-re.	2d\	-re,	4A/	-re	4f#X/	-re
.	.	.	.	8.f#X\L	sa-	4dd\	sa-
.	.	.	.	16g\Jk	.	.	.
2r	.	2r	.	[2a\	-na-	4.cc\	-na-
.	.	.	.	.	.	16b-\LL	.
.	.	.	.	.	.	16a\JJ	.
=54	=54	=54	=54	=54	=54	=54	=54
4r	.	4r	.	4a\]	.	2b-\	.
4G\	sa-	4B-\	sa-	8.g\L	.	.	.
.	.	.	.	16f#X\Jk	.	.	.
4.F\	-na-	[2d\	-na-	4g\	.	2bn\	.
.	.	.	.	4d\	-ti	.	.
16E-\LL	.	.	.	.	.	.	.
16D\JJ	.	.	.	.	.	.	.
!	!	!	!	!LO:LB:g=original	!	!	!
=55	=55	=55	=55	=55	=55	=55	=55
2E-\	.	8d\L]	.	4r	.	4cc\	.
.	.	8c\J	.	.	.	.	.
.	.	2c\	-ti,	4g\	sa-	4g\	.
4D\	-ti	.	.	4.fn\	-na-	4a-X\	-ti
4GG/	sa-	4Bn\	sa-	.	.	4g\	sa-
.	.	.	.	16e-\LL	.	.	.
.	.	.	.	16d\JJ	.	.	.
=56	=56	=56	=56	=56	=56	=56	=56
4C/	-na-	4c\	-na-	4e-\	.	4g\	-na-
4BBn/	-ti	4G/	-ti	4d\	-ti	4g\	-ti
2C/	su-	2c\	su-	2e-\	su-	2g\	su-
!	!	!	!	!	!	!LO:LB:g=original	!
=57	=57	=57	=57	=57	=57	=57	=57
1GG	-mus.	1Bn	-mus.	1d	-mus	1g	-mus.
!LO:LB:g=original	!	!LO:LB:g=original	!	!	!	!	!
=58||	=58||	=58||	=58||	=58||	=58||	=58||	=58||
2G\	Ec-	2d\	Ec-	2g\	Ec-	2a\	Ec-
4D\	-ce	4d\	-ce	4f#X\	-ce	4a\	-ce
4d\	vi-	4d\	vi-	[4f#\	vi-	[4a\	vi-
=59	=59	=59	=59	=59	=59	=59	=59
!LO:N:xstem:cue	!	!LO:N:xstem:cue	!	!LO:N:xstem:cue	!	!LO:N:xstem:cue	!
8d\	.	8d\	.	8f#\]	.	8a\]	.
8c\	-di-	8d\	-di-	8f#X\	-di-	8a\	-di-
4B-\	-mus	4d\	-mus	4g\	-mus	4b-\	-mus
4A\	e-	4e-\	e-	4g\	e-	4cc\	e-
4D\	-um	4d\	-um	4f#\	-um	4a\	-um
!	!	!	!	!LO:LB:g=original	!	!	!
=60	=60	=60	=60	=60	=60	=60	=60
4G\	non	4d\	non	4g\	non	4b-\	non
4G\	ha-	4d\	ha-	4g\	ha-	4b-\	ha-
4F\	-ben-	4d\	-ben-	4g\	-ben-	4bn\	-ben-
4F\	-tem	4d\	-tem	4g\	-tem	4b\	-tem
!LO:LB:g=original	!	!	!	!	!	!LO:LB:g=original	!
=61	=61	=61	=61	=61	=61	=61	=61
4.E-\	spe-	4.c\	spe-	4.g\	spe-	4cc\	spe-
.	.	.	.	.	.	4g\	-ci-
8E-\	-ci-	8c\	-ci-	8g\	-ci-	.	.
!	!	!LO:LB:g=original	!	!	!	!	!
4D\	-em	4c\	-em	4fn\	-em	4a-X\	-em
4GG/	ne-	4Bn\	ne-	4d\	ne-	4g\	ne-
=62	=62	=62	=62	=62	=62	=62	=62
4C/	-que	4c\	-que	4e-\	-que	4g\	-que
4BBn/	de-	4d\	de-	4d\	de-	4g\	de-
2C/	-co-	2c\	-co-	2e-\	-co-	2g\	-co-
!LO:TX:a:t=Volti Subitto&colon;	!	!	!	!	!	!	!
!LO:PB:g=original	!	!	!	!	!	!	!
=63	=63	=63	=63	=63	=63	=63	=63
4GG/	-rem,	4Bn\	-rem,	4d\	-rem,	4g\	-rem,
4E-\	as-	4e-\	as-	4g\	as-	4b-X\	as-
4E-\	-pec-	4e-\	-pec-	4g\	-pec-	4b-\	-pec-
4E-\	-tus	4e-\	-tus	4g\	-tus	4b-\	-tus
!	!	!	!	!LO:LB:g=original	!	!LO:PB:g=original	!
=64	=64	=64	=64	=64	=64	=64	=64
2B-\	e-	4e-\	e-	4g\	e-	2b-\	e-
.	.	8d\L	.	8f\L	.	.	.
.	.	8c\J	.	8e-\J	.	.	.
4B-\	-jus	4d\	-jus	4f\	-jus	4b-\	-jus
4G\	in	4e-\	in	4g\	in	4b-\	in
!	!	!LO:LB:g=original	!	!	!	!	!
=65	=65	=65	=65	=65	=65	=65	=65
4.A-X\	e-	4c\	e-	2e-\	e-	8cc\L	e-
.	.	.	.	.	.	8dd\J	.
.	.	2c\	-o	.	.	2ee-\	-o
8G\	.	.	.	.	.	.	.
4F\	-o	.	.	4a-X\	-o	.	.
4B-\	non	4c\	non	4f\	non	4dd\	non
=66	=66	=66	=66	=66	=66	=66	=66
4E-\	est,	4B-\	est,	4g\	est,	4ee-\	est,
2E-\	hic	2B-\	hic	2g\	hic	2b-\	hic
4F\	pec-	4d\	pec-	4f\	pec-	[4a-X\	pec-
!LO:LB:g=original	!	!	!	!	!	!	!
=67	=67	=67	=67	=67	=67	=67	=67
2G\	-ca-	2e-\	-ca-	4e-\	-ca-	4a-\]	.
.	.	.	.	4g\	-ta	8g/L	-ca-
.	.	.	.	.	.	8f/J	.
2E-\	-ta	2e-\	-ta	[2b-\	no-	4g\	.
.	.	.	.	.	.	4g\	-ta
!	!	!	!	!LO:PB:g=original	!	!LO:LB:g=original	!
=68	=68	=68	=68	=68	=68	=68	=68
2A-X\	no-	2e-\	no-	4b-\]	.	2cc\	no-
.	.	.	.	8a-X\L	.	.	.
.	.	.	.	8g\J	.	.	.
4A-\	-stra	4e-\	-stra	4a-\	-stra	4cc\	-stra
4A-\	por-	4e-\	por-	4a-\	por-	4cc\	por-
=69	=69	=69	=69	=69	=69	=69	=69
1An	-ta-	2.e-\	-ta-	1f	-ta-	1cc	-ta-
.	.	8d\L	.	.	.	.	.
.	.	8c\J	.	.	.	.	.
!	!	!LO:LB:g=original	!	!	!	!	!
=70	=70	=70	=70	=70	=70	=70	=70
4B-\	-vit,	4d\	-vit,	4f\	-vit,	4b-\	-vit,
2B-\	et	2d\	et	2b-\	et	2f/	et
4G\	pro	4e-\	pro	4b-\	pro	4g/	pro
=71	=71	=71	=71	=71	=71	=71	=71
4F\	no-	4c\	no-	8.a\L	no-	8an/	no-
.	.	.	.	.	.	8f/	-bis
.	.	.	.	16g\Jk	.	.	.
4D\	-bis	4d\	-bis	4f\	-bis	2b-\	do-
2C/	do-	2e-\	do-	4g\	do-	.	.
.	.	.	.	8f\L	.	4a\	.
.	.	.	.	8e-\J	.	.	.
!LO:LB:g=original	!	!	!	!LO:LB:g=original	!	!LO:LB:g=original	!
=72	=72	=72	=72	=72	=72	=72	=72
4BB-/	-let,	4d\	-let,	4f\	-let,	4b-\	-let
2BB-/	ip-	2d\	ip-	2f\	ip-	2b-\	i-
4BB-/	-se	4d\	-se	4f\	-se	4b-\	-pse
=73	=73	=73	=73	=73	=73	=73	=73
2F\	au-	4d\	au-	2f\	au-	4b-\	au-
.	.	8.c\L	.	.	.	8.a\L	.
.	.	16B-\Jk	.	.	.	16g\Jk	.
!	!	!LO:TX:a:t=V.S.	!	!	!	!	!
2F\	-tem	2c\	-tem	2f\	-tem	2a\	-tem
!	!	!LO:PB:g=original	!	!	!	!	!
=74	=74	=74	=74	=74	=74	=74	=74
4F#X\	vul-	4e-\	vul-	4a\	vul-	4cc\	vul-
4F#\	-ne-	4e-\	-ne-	4a\	-ne-	4cc\	-ne-
4F#\	-ra-	4e-\	-ra-	4a\	-ra-	4cc\	-ra-
4F#\	-tus	4e-\	-tus	4a\	-tus	4cc\	-tus
=75	=75	=75	=75	=75	=75	=75	=75
4G\	est	4d\	est	2d\	est	2b-\	est
2G\	pro-	4d\	pro-	.	.	.	.
.	.	4c#X\	-pter	[2en\	prop-	2a\	prop-
8Fn\	-pter	4c#\	i-	.	.	.	.
8En\	i-	.	.	.	.	.	.
!LO:LB:g=original	!	!	!	!LO:LB:g=original	!	!LO:LB:g=original	!
=76	=76	=76	=76	=76	=76	=76	=76
2.F\	-ni-	4d\	-ni-	4en\]	.	4a\	-ter
.	.	4d\	-qui-	8d#X\	-ter	4a\	i-
.	.	.	.	8c#X\	i-	.	.
.	.	2d\	-ta-	4d#\	-ni-	4bn\	-ni-
8E-X\L	-qui-	.	.	4d#\	-qui-	4b\	-qui-
8D\J	.	.	.	.	.	.	.
=77	=77	=77	=77	=77	=77	=77	=77
!	!	!LO:N:xstem:cue	!	!	!	!	!
4E-\	-ta-	4d\	.	4g\	-ta-	4cc\	-ta-
4E-\	-tes	4c\	-tes	4g\	-tes	4cc\	-tes
2E-\	no-	4B-\	no-	2g\	nos-	2cc#X\	nos-
.	.	8A\L	.	.	.	.	.
.	.	8G\J	.	.	.	.	.
!	!	!LO:LB:g=original	!	!	!	!	!
=78	=78	=78	=78	=78	=78	=78	=78
2D\	-stras,	2A\	-stras	2f#X\	-tras	2dd\	-tras
2r	.	2r	.	2r	.	2dd\	cu-
=79	=79	=79	=79	=79	=79	=79	=79
!LO:TX:a:t=2	!	!LO:TX:a:t=2	!	!	!	!	!
0r	.	0r	.	2g\	cu-	4g\	-jus
.	.	.	.	.	.	4b-\	li-
.	.	.	.	4d\	-jus	4a\	-vo-
.	.	.	.	4fn\	li-	[4dd\	-re-
!	!	!	!	!LO:LB:g=original	!	!LO:LB:g=original	!
=80	=80	=80	=80	=80	=80	=80	=80
.	.	.	.	2e-\	-vo-	4dd\]	.
.	.	.	.	.	.	2cc\	.
.	.	.	.	8d\	-re	.	.
.	.	.	.	8d\	sa-	.	.
.	.	.	.	4g\	-na-	4b-\	-sa-
=81	=81	=81	=81	=81	=81	=81	=81
2r	.	2d\	cu-	4g\	.	2a\	-na-
.	.	.	.	4f#X\	.	.	.
2G\	cu-	4G/	-jus	4g\	-ti,	4b-\	-ti
.	.	4B-\	li-	4r	.	4r	.
!LO:LB:g=original	!	!	!	!	!	!	!
=82	=82	=82	=82	=82	=82	=82	=82
!	!	!	!	!LO:TX:a:t=1	!	!LO:TX:a:t=1	!
4D\	-jus	4A\	-vo-	1r	.	1r	.
4F\	li-	2d\	.	.	.	.	.
2E-\	-vo-	.	.	.	.	.	.
.	.	4c\	.	.	.	.	.
=83	=83	=83	=83	=83	=83	=83	=83
2D\	-re	2d\	-re	4r	.	4r	.
.	.	.	.	4f#X\	sa-	4dd\	sa-
2r	.	2r	.	[2a\	-na-	4.cc\	-na-
.	.	.	.	.	.	16b-\LL	.
.	.	.	.	.	.	16a\JJ	.
=84	=84	=84	=84	=84	=84	=84	=84
4r	.	4r	.	4a\]	.	2b-\	.
4G\	sa-	4B-\	sa-	8.g\L	.	.	.
.	.	.	.	16f#X\Jk	.	.	.
4.F\	-na-	[2d\	-na-	4g\	.	2bn\	.
.	.	.	.	4d\	-ti	.	.
16E-\LL	.	.	.	.	.	.	.
16D\JJ	.	.	.	.	.	.	.
!	!	!LO:LB:g=original	!	!LO:LB:g=original	!	!LO:LB:g=original	!
=85	=85	=85	=85	=85	=85	=85	=85
2E-\	-ti,	8d\L]	.	4r	.	4cc\	.
.	.	8c\J	.	.	.	.	.
.	.	2c\	.	4g\	sa-	4g\	.
4D\	.	.	.	4.fn\	-na-	4a-X\	-ti,
4GG/	sa-	4Bn\	.	.	.	4g\	sa-
.	.	.	.	16e-\LL	.	.	.
.	.	.	.	16d\JJ	.	.	.
!LO:LB:g=original	!	!	!	!	!	!	!
=86	=86	=86	=86	=86	=86	=86	=86
2C/	-na-	4c\	-ti	8e-\L	.	2g\	-na-
.	.	.	.	8c\J	.	.	.
.	.	4e-\	sa-	2g\	.	.	.
2BBn/	-ti	[2d\	-na-	.	.	2g\	-ti
.	.	.	.	4f\	-ti	.	.
=87	=87	=87	=87	=87	=87	=87	=87
1C	su-	4d\]	.	1e-	su-	1g	su-
.	.	8.c\L	-ti	.	.	.	.
.	.	16Bn\Jk	.	.	.	.	.
.	.	[2c\	su-	.	.	.	.
=88	=88	=88	=88	=88	=88	=88	=88
!	!	!	!	!	!	!LO:TX:a:t=2	!
!	!	!	!	!	!	!LO:N:vis=00	!
1GG	-mus.	4c\]	.	4e-\	.	1g	-mus.
.	.	8.Bn\L	.	8.d\L	.	.	.
.	.	16A\Jk	.	16c\Jk	.	.	.
.	.	2B\	.	2d\	.	.	.
!	!	!LO:LB:g=original	!	!	!	!	!
=89	=89	=89	=89	=89	=89	=89	=89
1GG	.	1B	-mus.	1d	-mus.	1g	.
==	==	==	==	==	==	==	==
*-	*-	*-	*-	*-	*-	*-	*-
!!!system-decoration: [(s1,s2,s3,s4)]
!!!ENC: Anastazja Marusiak
!!!END: 2023-11-14
!!!ENC: Leszek Kubiak
!!!END: 2024-10-08
